src/assets/icon/ic_calendar.svg

<svg width="389" height="364" viewBox="0 0 389 364" fill="none" xmlns="http://www.w3.org/2000/svg">
<path d="M109.408 176.42H85.0953C78.8013 176.42 73.6987 181.71 73.6987 188.236C73.6987 194.761 78.8013 200.051 85.0953 200.051H109.408C115.702 200.051 120.804 194.761 120.804 188.236C120.804 181.71 115.702 176.42 109.408 176.42Z" fill="#434343"/>
<path d="M109.408 226.838H85.0953C78.8013 226.838 73.6987 232.128 73.6987 238.653C73.6987 245.178 78.8013 250.469 85.0953 250.469H109.408C115.702 250.469 120.804 245.178 120.804 238.653C120.804 232.128 115.702 226.838 109.408 226.838Z" fill="#434343"/>
<path d="M109.408 277.234H85.0953C78.8013 277.234 73.6987 282.52 73.6987 289.039C73.6987 295.558 78.8013 300.844 85.0953 300.844H109.408C115.702 300.844 120.804 295.558 120.804 289.039C120.804 282.52 115.702 277.234 109.408 277.234Z" fill="#434343"/>
<path d="M206.659 176.42H182.346C176.052 176.42 170.95 181.71 170.95 188.236C170.95 194.761 176.052 200.051 182.346 200.051H206.659C212.953 200.051 218.055 194.761 218.055 188.236C218.055 181.71 212.953 176.42 206.659 176.42Z" fill="#434343"/>
<path d="M206.659 226.838H182.346C176.052 226.838 170.95 232.128 170.95 238.653C170.95 245.178 176.052 250.469 182.346 250.469H206.659C212.953 250.469 218.055 245.178 218.055 238.653C218.055 232.128 212.953 226.838 206.659 226.838Z" fill="#434343"/>
<path d="M206.659 277.234H182.346C176.052 277.234 170.95 282.52 170.95 289.039C170.95 295.558 176.052 300.844 182.346 300.844H206.659C212.953 300.844 218.055 295.558 218.055 289.039C218.055 282.52 212.953 277.234 206.659 277.234Z" fill="#434343"/>
<path d="M303.902 176.42H279.589C273.295 176.42 268.193 181.71 268.193 188.236C268.193 194.761 273.295 200.051 279.589 200.051H303.902C310.196 200.051 315.298 194.761 315.298 188.236C315.298 181.71 310.196 176.42 303.902 176.42Z" fill="#434343"/>
<path d="M303.902 226.838H279.589C273.295 226.838 268.193 232.128 268.193 238.653C268.193 245.178 273.295 250.469 279.589 250.469H303.902C310.196 250.469 315.298 245.178 315.298 238.653C315.298 232.128 310.196 226.838 303.902 226.838Z" fill="#434343"/>
<path d="M303.902 277.234H279.589C273.295 277.234 268.193 282.52 268.193 289.039C268.193 295.558 273.295 300.844 279.589 300.844H303.902C310.196 300.844 315.298 295.558 315.298 289.039C315.298 282.52 310.196 277.234 303.902 277.234Z" fill="#434343"/>
<path d="M354.811 31.5048H327.459V11.8143C327.459 5.28965 322.356 0 316.062 0C309.769 0 304.666 5.28965 304.666 11.8143V31.5048H205.896V11.8143C205.896 5.28965 200.794 0 194.5 0C188.206 0 183.104 5.28965 183.104 11.8143V31.5048H84.334V11.8143C84.334 5.28965 79.2314 0 72.9375 0C66.6436 0 61.541 5.28965 61.541 11.8143V31.5048H34.1895C15.3374 31.5048 0 47.4045 0 66.9477V328.437C0 347.981 15.3374 363.88 34.1895 363.88H354.811C373.663 363.88 389 347.981 389 328.437C389 320.812 389 73.5834 389 66.9477C389 47.4045 373.663 31.5048 354.811 31.5048ZM22.793 66.9477C22.793 60.4333 27.9054 55.1334 34.1895 55.1334H61.541V74.8239C61.541 81.3485 66.6436 86.6382 72.9375 86.6382C79.2314 86.6382 84.334 81.3485 84.334 74.8239V55.1334H183.104V74.8239C183.104 81.3485 188.206 86.6382 194.5 86.6382C200.794 86.6382 205.896 81.3485 205.896 74.8239V55.1334H304.666V74.8239C304.666 81.3485 309.769 86.6382 316.062 86.6382C322.356 86.6382 327.459 81.3485 327.459 74.8239V55.1334H354.811C361.095 55.1334 366.207 60.4333 366.207 66.9477V113.417H22.793V66.9477ZM354.811 340.252H34.1895C27.9054 340.252 22.793 334.952 22.793 328.437V137.046H366.207V328.437C366.207 334.952 361.095 340.252 354.811 340.252Z" fill="#434343"/>
</svg>

<svg width="389" height="364" fill="none" xmlns="http://www.w3.org/2000/svg"><path d="M109.408 176.42H85.095c-6.294 0-11.396 5.29-11.396 11.816 0 6.525 5.102 11.815 11.396 11.815h24.313c6.294 0 11.396-5.29 11.396-11.815 0-6.526-5.102-11.816-11.396-11.816zM109.408 226.838H85.095c-6.294 0-11.396 5.29-11.396 11.815 0 6.525 5.102 11.816 11.396 11.816h24.313c6.294 0 11.396-5.291 11.396-11.816s-5.102-11.815-11.396-11.815zM109.408 277.234H85.095c-6.294 0-11.396 5.286-11.396 11.805s5.102 11.805 11.396 11.805h24.313c6.294 0 11.396-5.286 11.396-11.805s-5.102-11.805-11.396-11.805zM206.659 176.42h-24.313c-6.294 0-11.396 5.29-11.396 11.816 0 6.525 5.102 11.815 11.396 11.815h24.313c6.294 0 11.396-5.29 11.396-11.815 0-6.526-5.102-11.816-11.396-11.816zM206.659 226.838h-24.313c-6.294 0-11.396 5.29-11.396 11.815 0 6.525 5.102 11.816 11.396 11.816h24.313c6.294 0 11.396-5.291 11.396-11.816s-5.102-11.815-11.396-11.815zM206.659 277.234h-24.313c-6.294 0-11.396 5.286-11.396 11.805s5.102 11.805 11.396 11.805h24.313c6.294 0 11.396-5.286 11.396-11.805s-5.102-11.805-11.396-11.805zM303.902 176.42h-24.313c-6.294 0-11.396 5.29-11.396 11.816 0 6.525 5.102 11.815 11.396 11.815h24.313c6.294 0 11.396-5.29 11.396-11.815 0-6.526-5.102-11.816-11.396-11.816zM303.902 226.838h-24.313c-6.294 0-11.396 5.29-11.396 11.815 0 6.525 5.102 11.816 11.396 11.816h24.313c6.294 0 11.396-5.291 11.396-11.816s-5.102-11.815-11.396-11.815zM303.902 277.234h-24.313c-6.294 0-11.396 5.286-11.396 11.805s5.102 11.805 11.396 11.805h24.313c6.294 0 11.396-5.286 11.396-11.805s-5.102-11.805-11.396-11.805z" fill="#434343"/><path d="M354.811 31.505h-27.352v-19.69C327.459 5.29 322.356 0 316.062 0c-6.293 0-11.396 5.29-11.396 11.814v19.69h-98.77v-19.69C205.896 5.29 200.794 0 194.5 0c-6.294 0-11.396 5.29-11.396 11.814v19.69h-98.77v-19.69C84.334 5.29 79.231 0 72.937 0c-6.293 0-11.396 5.29-11.396 11.814v19.69H34.19C15.337 31.505 0 47.405 0 66.949v261.489c0 19.544 15.337 35.443 34.19 35.443H354.81c18.852 0 34.189-15.899 34.189-35.443V66.947c0-19.543-15.337-35.442-34.189-35.442zM22.793 66.948c0-6.515 5.112-11.815 11.397-11.815H61.54v19.69c0 6.526 5.103 11.815 11.397 11.815 6.293 0 11.396-5.29 11.396-11.814v-19.69h98.77v19.69c0 6.525 5.102 11.814 11.396 11.814 6.294 0 11.396-5.29 11.396-11.814v-19.69h98.77v19.69c0 6.525 5.103 11.814 11.396 11.814 6.294 0 11.397-5.29 11.397-11.814v-19.69h27.352c6.284 0 11.396 5.3 11.396 11.814v46.469H22.793v-46.47zm332.018 273.304H34.19c-6.285 0-11.397-5.3-11.397-11.815V137.046h343.414v191.391c0 6.515-5.112 11.815-11.396 11.815z" fill="#434343"/></svg>
